X: 1
T: Amazing Grace
M: 3/4
L: 1/8
R: waltz
K: Gmaj
|:D | A> (B A/G/)  B2 A | G2 E D2 D |
G> B A/G/ B2 A/B/ | ( d3  d2) B |
d> B A/G/ B2 A | G2 E D2 D |
G> B A/G/ B2 A | (G3 G2) :|
